yre/img/svg/icons/brand-3.svg

<svg width="62" height="62" viewBox="0 0 62 62" fill="none" xmlns="http://www.w3.org/2000/svg">
<path d="M52.3125 44.3203C50.9743 44.3203 49.8906 45.404 49.8906 46.7422C49.8906 48.0804 50.9743 49.1641 52.3125 49.1641C53.6507 49.1641 54.7344 48.0804 54.7344 46.7422C54.7344 45.404 53.6507 44.3203 52.3125 44.3203Z" fill="black"/>
<path d="M52.3125 44.3203C50.9743 44.3203 49.8906 45.404 49.8906 46.7422C49.8906 48.0804 50.9743 49.1641 52.3125 49.1641C53.6507 49.1641 54.7344 48.0804 54.7344 46.7422C54.7344 45.404 53.6507 44.3203 52.3125 44.3203Z" fill="url(#paint0_linear)"/>
<path d="M51.1016 34.6328C50.4332 34.6328 49.8906 35.1754 49.8906 35.8438C49.8906 36.5121 50.4332 37.0547 51.1016 37.0547C51.7699 37.0547 52.3125 36.5121 52.3125 35.8438C52.3125 35.1754 51.7699 34.6328 51.1016 34.6328Z" fill="black"/>
<path d="M51.1016 34.6328C50.4332 34.6328 49.8906 35.1754 49.8906 35.8438C49.8906 36.5121 50.4332 37.0547 51.1016 37.0547C51.7699 37.0547 52.3125 36.5121 52.3125 35.8438C52.3125 35.1754 51.7699 34.6328 51.1016 34.6328Z" fill="url(#paint1_linear)"/>
<path d="M15.2578 44.3203C13.9196 44.3203 12.8359 45.404 12.8359 46.7422C12.8359 48.0804 13.9196 49.1641 15.2578 49.1641C16.596 49.1641 17.6797 48.0804 17.6797 46.7422C17.6797 45.404 16.596 44.3203 15.2578 44.3203Z" fill="black"/>
<path d="M15.2578 44.3203C13.9196 44.3203 12.8359 45.404 12.8359 46.7422C12.8359 48.0804 13.9196 49.1641 15.2578 49.1641C16.596 49.1641 17.6797 48.0804 17.6797 46.7422C17.6797 45.404 16.596 44.3203 15.2578 44.3203Z" fill="url(#paint2_linear)"/>
<path d="M56.9103 29.8666L54.8224 21.515C55.5645 20.8049 55.9453 19.8632 55.9453 18.8906C55.9453 16.8874 54.3158 15.2578 52.3125 15.2578H42.625V11.625C42.625 9.62175 40.9954 7.99219 38.9922 7.99219H3.63281C1.62956 7.99219 0 9.62175 0 11.625V43.1094C0 45.1126 1.62956 46.7422 3.63281 46.7422H7.99219C7.99219 50.7487 11.2513 54.0078 15.2578 54.0078C19.2643 54.0078 22.5234 50.7487 22.5234 46.7422H45.0469C45.0469 50.7487 48.306 54.0078 52.3125 54.0078C56.319 54.0078 59.5781 50.7487 59.5781 46.7422C59.5781 46.6731 59.5748 46.6045 59.5729 46.5355C60.9849 46.0374 62 44.6897 62 43.1094V35.8438C62 32.8334 59.7919 30.3302 56.9103 29.8666ZM52.5779 22.5234L54.3943 29.7891H44.3373L47.114 27.0124C47.587 26.5394 47.587 25.7731 47.114 25.3001C46.641 24.8271 45.8747 24.8271 45.4016 25.3001L42.625 28.0762V22.5234H52.5779ZM53.5234 18.8906C53.5234 19.559 52.9809 20.1016 52.3125 20.1016H42.625V17.6797H52.3125C52.9804 17.6797 53.5234 18.2227 53.5234 18.8906ZM15.2578 51.5859C12.5871 51.5859 10.4141 49.4129 10.4141 46.7422C10.4141 44.0351 12.6264 41.8984 15.2578 41.8984C17.8954 41.8984 20.1016 44.0408 20.1016 46.7422C20.1016 49.4129 17.9285 51.5859 15.2578 51.5859ZM22.1077 44.3203C21.0963 41.4628 18.3589 39.4766 15.2578 39.4766C12.1553 39.4766 9.41693 41.4642 8.4075 44.3203H3.63281C2.9649 44.3203 2.42188 43.7773 2.42188 43.1094V11.625C2.42188 10.9571 2.9649 10.4141 3.63281 10.4141H38.9922C39.6601 10.4141 40.2031 10.9571 40.2031 11.625V44.3203H22.1077ZM52.3125 51.5859C49.6418 51.5859 47.4688 49.4129 47.4688 46.7422C47.4688 44.0351 49.6811 41.8984 52.3125 41.8984C54.9501 41.8984 57.1562 44.0408 57.1562 46.7422C57.1562 49.4129 54.9832 51.5859 52.3125 51.5859ZM59.0762 44.089C58.002 41.3559 55.3294 39.4766 52.3125 39.4766C49.2099 39.4766 46.4716 41.4642 45.4622 44.3203H42.625V32.2109H55.9453C57.5238 32.2109 58.87 33.2232 59.37 34.6328H55.9453C55.2765 34.6328 54.7344 35.1749 54.7344 35.8438C54.7344 36.5126 55.2765 37.0547 55.9453 37.0547H59.5781V43.1094C59.5781 43.5119 59.3795 43.8686 59.0762 44.089Z" fill="black"/>
<path d="M56.9103 29.8666L54.8224 21.515C55.5645 20.8049 55.9453 19.8632 55.9453 18.8906C55.9453 16.8874 54.3158 15.2578 52.3125 15.2578H42.625V11.625C42.625 9.62175 40.9954 7.99219 38.9922 7.99219H3.63281C1.62956 7.99219 0 9.62175 0 11.625V43.1094C0 45.1126 1.62956 46.7422 3.63281 46.7422H7.99219C7.99219 50.7487 11.2513 54.0078 15.2578 54.0078C19.2643 54.0078 22.5234 50.7487 22.5234 46.7422H45.0469C45.0469 50.7487 48.306 54.0078 52.3125 54.0078C56.319 54.0078 59.5781 50.7487 59.5781 46.7422C59.5781 46.6731 59.5748 46.6045 59.5729 46.5355C60.9849 46.0374 62 44.6897 62 43.1094V35.8438C62 32.8334 59.7919 30.3302 56.9103 29.8666ZM52.5779 22.5234L54.3943 29.7891H44.3373L47.114 27.0124C47.587 26.5394 47.587 25.7731 47.114 25.3001C46.641 24.8271 45.8747 24.8271 45.4016 25.3001L42.625 28.0762V22.5234H52.5779ZM53.5234 18.8906C53.5234 19.559 52.9809 20.1016 52.3125 20.1016H42.625V17.6797H52.3125C52.9804 17.6797 53.5234 18.2227 53.5234 18.8906ZM15.2578 51.5859C12.5871 51.5859 10.4141 49.4129 10.4141 46.7422C10.4141 44.0351 12.6264 41.8984 15.2578 41.8984C17.8954 41.8984 20.1016 44.0408 20.1016 46.7422C20.1016 49.4129 17.9285 51.5859 15.2578 51.5859ZM22.1077 44.3203C21.0963 41.4628 18.3589 39.4766 15.2578 39.4766C12.1553 39.4766 9.41693 41.4642 8.4075 44.3203H3.63281C2.9649 44.3203 2.42188 43.7773 2.42188 43.1094V11.625C2.42188 10.9571 2.9649 10.4141 3.63281 10.4141H38.9922C39.6601 10.4141 40.2031 10.9571 40.2031 11.625V44.3203H22.1077ZM52.3125 51.5859C49.6418 51.5859 47.4688 49.4129 47.4688 46.7422C47.4688 44.0351 49.6811 41.8984 52.3125 41.8984C54.9501 41.8984 57.1562 44.0408 57.1562 46.7422C57.1562 49.4129 54.9832 51.5859 52.3125 51.5859ZM59.0762 44.089C58.002 41.3559 55.3294 39.4766 52.3125 39.4766C49.2099 39.4766 46.4716 41.4642 45.4622 44.3203H42.625V32.2109H55.9453C57.5238 32.2109 58.87 33.2232 59.37 34.6328H55.9453C55.2765 34.6328 54.7344 35.1749 54.7344 35.8438C54.7344 36.5126 55.2765 37.0547 55.9453 37.0547H59.5781V43.1094C59.5781 43.5119 59.3795 43.8686 59.0762 44.089Z" fill="url(#paint3_linear)"/>
<path d="M21.3125 15.2578C15.3032 15.2578 10.4141 20.147 10.4141 26.1562C10.4141 32.1655 15.3032 37.0547 21.3125 37.0547C27.3218 37.0547 32.2109 32.1655 32.2109 26.1562C32.2109 20.147 27.3218 15.2578 21.3125 15.2578ZM21.3125 34.6328C16.6386 34.6328 12.8359 30.8302 12.8359 26.1562C12.8359 21.4823 16.6386 17.6797 21.3125 17.6797C25.9864 17.6797 29.7891 21.4823 29.7891 26.1562C29.7891 30.8302 25.9864 34.6328 21.3125 34.6328Z" fill="black"/>
<path d="M21.3125 15.2578C15.3032 15.2578 10.4141 20.147 10.4141 26.1562C10.4141 32.1655 15.3032 37.0547 21.3125 37.0547C27.3218 37.0547 32.2109 32.1655 32.2109 26.1562C32.2109 20.147 27.3218 15.2578 21.3125 15.2578ZM21.3125 34.6328C16.6386 34.6328 12.8359 30.8302 12.8359 26.1562C12.8359 21.4823 16.6386 17.6797 21.3125 17.6797C25.9864 17.6797 29.7891 21.4823 29.7891 26.1562C29.7891 30.8302 25.9864 34.6328 21.3125 34.6328Z" fill="url(#paint4_linear)"/>
<path d="M26.1562 24.9453H22.5234V21.3125C22.5234 20.6436 21.9814 20.1016 21.3125 20.1016C20.6436 20.1016 20.1016 20.6436 20.1016 21.3125V26.1562C20.1016 26.8251 20.6436 27.3672 21.3125 27.3672H26.1562C26.8251 27.3672 27.3672 26.8251 27.3672 26.1562C27.3672 25.4874 26.8251 24.9453 26.1562 24.9453Z" fill="black"/>
<path d="M26.1562 24.9453H22.5234V21.3125C22.5234 20.6436 21.9814 20.1016 21.3125 20.1016C20.6436 20.1016 20.1016 20.6436 20.1016 21.3125V26.1562C20.1016 26.8251 20.6436 27.3672 21.3125 27.3672H26.1562C26.8251 27.3672 27.3672 26.8251 27.3672 26.1562C27.3672 25.4874 26.8251 24.9453 26.1562 24.9453Z" fill="url(#paint5_linear)"/>
<defs>
<linearGradient id="paint0_linear" x1="52.3125" y1="44.3203" x2="52.3125" y2="49.1641" gradientUnits="userSpaceOnUse">
<stop stop-color="#EC407A"/>
<stop offset="1" stop-color="#C40135"/>
</linearGradient>
<linearGradient id="paint1_linear" x1="51.1016" y1="34.6328" x2="51.1016" y2="37.0547" gradientUnits="userSpaceOnUse">
<stop stop-color="#EC407A"/>
<stop offset="1" stop-color="#C40135"/>
</linearGradient>
<linearGradient id="paint2_linear" x1="15.2578" y1="44.3203" x2="15.2578" y2="49.1641" gradientUnits="userSpaceOnUse">
<stop stop-color="#EC407A"/>
<stop offset="1" stop-color="#C40135"/>
</linearGradient>
<linearGradient id="paint3_linear" x1="31" y1="7.99219" x2="31" y2="54.0078" gradientUnits="userSpaceOnUse">
<stop stop-color="#EC407A"/>
<stop offset="1" stop-color="#C40135"/>
</linearGradient>
<linearGradient id="paint4_linear" x1="21.3125" y1="15.2578" x2="21.3125" y2="37.0547" gradientUnits="userSpaceOnUse">
<stop stop-color="#EC407A"/>
<stop offset="1" stop-color="#C40135"/>
</linearGradient>
<linearGradient id="paint5_linear" x1="23.7344" y1="20.1016" x2="23.7344" y2="27.3672" gradientUnits="userSpaceOnUse">
<stop stop-color="#EC407A"/>
<stop offset="1" stop-color="#C40135"/>
</linearGradient>
</defs>
</svg>

<svg width="62" height="62" fill="none" xmlns="http://www.w3.org/2000/svg"><path d="M52.313 44.32a2.421 2.421 0 100 4.844 2.421 2.421 0 100-4.844z" fill="#000"/><path d="M52.313 44.32a2.421 2.421 0 100 4.844 2.421 2.421 0 100-4.844z" fill="url(#paint0_linear)"/><path d="M51.102 34.633a1.212 1.212 0 100 2.423 1.212 1.212 0 000-2.423z" fill="#000"/><path d="M51.102 34.633a1.212 1.212 0 100 2.423 1.212 1.212 0 000-2.423z" fill="url(#paint1_linear)"/><path d="M15.258 44.32a2.421 2.421 0 100 4.844 2.421 2.421 0 100-4.844z" fill="#000"/><path d="M15.258 44.32a2.421 2.421 0 100 4.844 2.421 2.421 0 100-4.844z" fill="url(#paint2_linear)"/><path d="M56.91 29.867l-2.088-8.352a3.604 3.604 0 001.123-2.624 3.637 3.637 0 00-3.633-3.633h-9.687v-3.633a3.637 3.637 0 00-3.633-3.633H3.632A3.637 3.637 0 000 11.625v31.484a3.637 3.637 0 003.633 3.633h4.36c0 4.007 3.258 7.266 7.265 7.266 4.006 0 7.265-3.26 7.265-7.266h22.524a7.274 7.274 0 007.266 7.266c4.006 0 7.265-3.26 7.265-7.266 0-.069-.003-.137-.005-.206A3.638 3.638 0 0062 43.108v-7.265a6.064 6.064 0 00-5.09-5.977zm-4.332-7.344l1.816 7.266H44.337l2.777-2.777a1.21 1.21 0 10-1.712-1.712l-2.777 2.776v-5.553h9.953zm.945-3.632a1.21 1.21 0 01-1.21 1.21h-9.688V17.68h9.688c.667 0 1.21.543 1.21 1.21zM15.258 51.586a4.85 4.85 0 01-4.844-4.844c0-2.707 2.212-4.844 4.844-4.844 2.637 0 4.844 2.143 4.844 4.844a4.85 4.85 0 01-4.844 4.844zm6.85-7.266a7.292 7.292 0 00-6.85-4.843 7.29 7.29 0 00-6.85 4.843H3.633a1.212 1.212 0 01-1.211-1.21V11.624c0-.668.543-1.21 1.21-1.21h35.36c.668 0 1.211.542 1.211 1.21V44.32H22.108zm30.204 7.266a4.85 4.85 0 01-4.843-4.844c0-2.707 2.212-4.844 4.843-4.844 2.638 0 4.844 2.143 4.844 4.844a4.85 4.85 0 01-4.843 4.844zm6.764-7.497a7.292 7.292 0 00-6.764-4.612 7.29 7.29 0 00-6.85 4.843h-2.837V32.21h13.32a3.639 3.639 0 013.425 2.423h-3.425a1.21 1.21 0 100 2.422h3.633v6.054c0 .403-.199.76-.502.98z" fill="#000"/><path d="M56.91 29.867l-2.088-8.352a3.604 3.604 0 001.123-2.624 3.637 3.637 0 00-3.633-3.633h-9.687v-3.633a3.637 3.637 0 00-3.633-3.633H3.632A3.637 3.637 0 000 11.625v31.484a3.637 3.637 0 003.633 3.633h4.36c0 4.007 3.258 7.266 7.265 7.266 4.006 0 7.265-3.26 7.265-7.266h22.524a7.274 7.274 0 007.266 7.266c4.006 0 7.265-3.26 7.265-7.266 0-.069-.003-.137-.005-.206A3.638 3.638 0 0062 43.108v-7.265a6.064 6.064 0 00-5.09-5.977zm-4.332-7.344l1.816 7.266H44.337l2.777-2.777a1.21 1.21 0 10-1.712-1.712l-2.777 2.776v-5.553h9.953zm.945-3.632a1.21 1.21 0 01-1.21 1.21h-9.688V17.68h9.688c.667 0 1.21.543 1.21 1.21zM15.258 51.586a4.85 4.85 0 01-4.844-4.844c0-2.707 2.212-4.844 4.844-4.844 2.637 0 4.844 2.143 4.844 4.844a4.85 4.85 0 01-4.844 4.844zm6.85-7.266a7.292 7.292 0 00-6.85-4.843 7.29 7.29 0 00-6.85 4.843H3.633a1.212 1.212 0 01-1.211-1.21V11.624c0-.668.543-1.21 1.21-1.21h35.36c.668 0 1.211.542 1.211 1.21V44.32H22.108zm30.204 7.266a4.85 4.85 0 01-4.843-4.844c0-2.707 2.212-4.844 4.843-4.844 2.638 0 4.844 2.143 4.844 4.844a4.85 4.85 0 01-4.843 4.844zm6.764-7.497a7.292 7.292 0 00-6.764-4.612 7.29 7.29 0 00-6.85 4.843h-2.837V32.21h13.32a3.639 3.639 0 013.425 2.423h-3.425a1.21 1.21 0 100 2.422h3.633v6.054c0 .403-.199.76-.502.98z" fill="url(#paint3_linear)"/><path d="M21.313 15.258c-6.01 0-10.899 4.889-10.899 10.898 0 6.01 4.89 10.899 10.899 10.899 6.009 0 10.898-4.89 10.898-10.899 0-6.009-4.89-10.898-10.898-10.898zm0 19.375c-4.674 0-8.477-3.803-8.477-8.477s3.803-8.476 8.476-8.476c4.674 0 8.477 3.802 8.477 8.476 0 4.674-3.803 8.477-8.477 8.477z" fill="#000"/><path d="M21.313 15.258c-6.01 0-10.899 4.889-10.899 10.898 0 6.01 4.89 10.899 10.899 10.899 6.009 0 10.898-4.89 10.898-10.899 0-6.009-4.89-10.898-10.898-10.898zm0 19.375c-4.674 0-8.477-3.803-8.477-8.477s3.803-8.476 8.476-8.476c4.674 0 8.477 3.802 8.477 8.476 0 4.674-3.803 8.477-8.477 8.477z" fill="url(#paint4_linear)"/><path d="M26.156 24.945h-3.633v-3.633a1.21 1.21 0 10-2.421 0v4.844a1.21 1.21 0 001.21 1.211h4.844a1.21 1.21 0 100-2.422z" fill="#000"/><path d="M26.156 24.945h-3.633v-3.633a1.21 1.21 0 10-2.421 0v4.844a1.21 1.21 0 001.21 1.211h4.844a1.21 1.21 0 100-2.422z" fill="url(#paint5_linear)"/><defs><linearGradient id="paint0_linear" x1="52.313" y1="44.32" x2="52.313" y2="49.164" gradientUnits="userSpaceOnUse"><stop stop-color="#EC407A"/><stop offset="1" stop-color="#C40135"/></linearGradient><linearGradient id="paint1_linear" x1="51.102" y1="34.633" x2="51.102" y2="37.055" gradientUnits="userSpaceOnUse"><stop stop-color="#EC407A"/><stop offset="1" stop-color="#C40135"/></linearGradient><linearGradient id="paint2_linear" x1="15.258" y1="44.32" x2="15.258" y2="49.164" gradientUnits="userSpaceOnUse"><stop stop-color="#EC407A"/><stop offset="1" stop-color="#C40135"/></linearGradient><linearGradient id="paint3_linear" x1="31" y1="7.992" x2="31" y2="54.008" gradientUnits="userSpaceOnUse"><stop stop-color="#EC407A"/><stop offset="1" stop-color="#C40135"/></linearGradient><linearGradient id="paint4_linear" x1="21.313" y1="15.258" x2="21.313" y2="37.055" gradientUnits="userSpaceOnUse"><stop stop-color="#EC407A"/><stop offset="1" stop-color="#C40135"/></linearGradient><linearGradient id="paint5_linear" x1="23.734" y1="20.102" x2="23.734" y2="27.367" gradientUnits="userSpaceOnUse"><stop stop-color="#EC407A"/><stop offset="1" stop-color="#C40135"/></linearGradient></defs></svg>
